mobile/16/svg/pin-badge-fill-16.svg

<svg width="16" height="16" viewBox="0 0 16 16" fill="none" xmlns="http://www.w3.org/2000/svg">
<path d="M7.428 3.416L8.026 4.014L8.313 4.301L7.71 4.905L9.115 6.31L10.866 6.398C11.205 6.415 11.491 6.623 11.613 6.94C11.735 7.256 11.662 7.602 11.422 7.842L10.075 9.189L12.585 11.699L12.442 11.842L11.844 12.44L11.701 12.583L9.191 10.073L7.844 11.42C7.681 11.583 7.469 11.669 7.25 11.669C7.147 11.669 7.043 11.65 6.942 11.611C6.625 11.489 6.417 11.203 6.4 10.864L6.31 9.115L4.905 7.71L4.301 8.313L4.081 8.093L4.014 8.027L3.416 7.428L7.428 3.416ZM7.428 2L6.72 2.708L2.708 6.72L2 7.428L2.708 8.136L3.306 8.734L3.374 8.801L3.593 9.02L4.301 9.728L4.905 9.124L5.33 9.551L5.399 10.917C5.436 11.646 5.9 12.287 6.582 12.548C6.796 12.63 7.021 12.672 7.249 12.672C7.739 12.672 8.201 12.479 8.551 12.13L9.19 11.491L10.992 13.293L11.699 14L12.407 13.292L12.55 13.149L13.148 12.551L13.292 12.407L14 11.699L13.292 10.991L11.49 9.189L12.13 8.55C12.653 8.027 12.813 7.272 12.548 6.581C12.287 5.9 11.647 5.435 10.917 5.398L9.551 5.33L9.126 4.905L9.73 4.301L9.022 3.593L8.735 3.306L8.136 2.708L7.428 2Z" fill="white"/>
<path d="M10.866 6.39899L9.11498 6.30999L7.70999 4.90499L8.31399 4.30099L8.02699 4.01399L7.42799 3.41599L3.41599 7.42799L4.01399 8.02599L4.08099 8.09299L4.30099 8.31298L4.90499 7.70999L6.30999 9.11498L6.39798 10.866C6.41498 11.205 6.62299 11.491 6.93999 11.613C7.25599 11.735 7.60199 11.662 7.84199 11.422L9.18899 10.075L11.699 12.585L11.842 12.442L12.44 11.844L12.583 11.701L10.073 9.19099L11.42 7.84399C11.66 7.60399 11.733 7.25899 11.611 6.94199C11.491 6.62299 11.205 6.41599 10.866 6.39899Z" fill="black"/>
</svg>

<svg width="16" height="16" fill="none" xmlns="http://www.w3.org/2000/svg"><path d="m7.428 3.416.598.598.287.287-.603.604L9.115 6.31l1.751.088a.836.836 0 0 1 .747.542.835.835 0 0 1-.191.902l-1.347 1.347 2.51 2.51-.143.143-.598.598-.143.143-2.51-2.51-1.347 1.347a.836.836 0 0 1-.902.191.836.836 0 0 1-.542-.747l-.09-1.749L4.905 7.71l-.604.603-.22-.22-.067-.066-.598-.599 4.012-4.012zm0-1.416-.708.708L2.708 6.72 2 7.428l.708.708.598.598.068.067.219.219.708.708.604-.604.425.427.069 1.366a1.848 1.848 0 0 0 3.152 1.213l.639-.639 1.802 1.802.707.707.708-.708.143-.143.598-.598.144-.144.708-.708-.708-.708-1.802-1.802.64-.639a1.827 1.827 0 0 0 .418-1.969 1.848 1.848 0 0 0-1.631-1.183L9.551 5.33l-.425-.425.604-.604-.708-.708-.287-.287-.599-.598L7.428 2z" fill="#fff"/><path d="M10.866 6.399 9.115 6.31 7.71 4.905l.604-.604-.287-.287-.599-.598-4.012 4.012.598.598.067.067.22.22.604-.603L6.31 9.115l.088 1.751a.836.836 0 0 0 .542.747.835.835 0 0 0 .902-.191l1.347-1.347 2.51 2.51.143-.143.598-.598.143-.143-2.51-2.51 1.347-1.347a.835.835 0 0 0 .191-.902.83.83 0 0 0-.745-.543z" fill="#000"/></svg>
